X:1
T:Cowboy's Dream [2]
S:McGinty's Oklahoma Cowboy Band
M:C|
L:1/8
D:OKeh 45057 (78 RPM), McGinty's Oklahoma Cow Boy Band (1926)
N:Otto Gray was listed as "Director" of the band on the recording.
F: https://www.slippery-hill.com/recording/cowboys-dream-0
Z:Transcribed by Andrew Kuntz
K:D
FE|D2 FA d2 (3DEF|G2B2 edcB|ABce a2c2|edcB AGFE|
D2 FA d2 (3DEF|G2B2 edcB|ABce a2c2|[F2d2][Fd][Fd] [F2d2]:|
[A3f3]f g2b2|a4d3d|c2[c2a2]c2 [c2a2]|fgfe dB A2|
[A3f3]f g2b2|a4d3d|c2[c2a2]c2 [c2a2]|fgfe d4:|]

